X: 305564
T: FORTUNE'S REEL
C: By H. Thayer
%R: reel, hornpipe
B: Elias Howe "The Musician's Companion" Part 3 1844 p.62 #4
S: http://imslp.org/wiki/The_Musician's_Companion_(Howe,_Elias)
S: https://archive.org/stream/firstthirdpartof03howe/#page/66/mode/1up
Z: 2015 John Chambers <jc:trillian.mit.edu>
M: 2/4
L: 1/16
K: A
% - - - - - - - - - - - - - - - - - - - - - - - - -
|:\
(3(EAA) AA ({c}B>A)F>A | Acea fece |\
.a(gae) fecA | BcBA (AF)(FE) |\
(3EAA AA ({c}BA)FA | Acea fece |\
a(gae) fece | e(cB)G A4 :|
|:\
(3Aaa af ({g}fe)cA | BcBA (AF)(FE) |\
EAFA EAFA | EAAB (AF)(FE) |\
(3Aaa af ({g}fe)cA | BcBA (AF)(FE) |\
Acea fece | e(cB)G A4 :|
% - - - - - - - - - - - - - - - - - - - - - - - - -


